modules/hawcons-filled/icons/icon-30-clipboard-move.svg

<?xml version="1.0" encoding="UTF-8" standalone="no"?>
<svg width="32px" height="32px" viewBox="0 0 32 32" version="1.1" xmlns="http://www.w3.org/2000/svg" xmlns:xlink="http://www.w3.org/1999/xlink" xmlns:sketch="http://www.bohemiancoding.com/sketch/ns">
    <!-- Generator: Sketch 3.0.3 (7891) - http://www.bohemiancoding.com/sketch -->
    <title>icon 30 clipboard move</title>
    <desc>Created with Sketch.</desc>
    <defs></defs>
    <g id="Page-1" stroke="none" stroke-width="1" fill="none" fill-rule="evenodd" sketch:type="MSPage">
        <g id="icon-30-clipboard-move" sketch:type="MSArtboardGroup" fill="#929292">
            <path d="M14,5 L14,3.99791312 C14,2.89826062 14.897616,2 16.0048815,2 L16.9951185,2 C18.1061002,2 19,2.89449617 19,3.99791312 L19,5 L21.0044225,5 C21.555163,5 22,5.44724809 22,5.99895656 L22,7.00104344 C22,7.55733967 21.5542648,8 21.0044225,8 L11.9955775,8 C11.444837,8 11,7.55275191 11,7.00104344 L11,5.99895656 C11,5.44266033 11.4457352,5 11.9955775,5 L14,5 L14,5 Z M22.9999942,6 L24.0025781,6 C25.1090746,6 26,6.89703997 26,8.00359486 L26,28.9964051 C26,30.1102368 25.1057238,31 24.0025781,31 L8.99742191,31 C7.89092539,31 7,30.10296 7,28.9964051 L7,8.00359486 C7,6.88976324 7.89427625,6 8.99742191,6 L10.0000058,6 C10.0000019,6.0016267 10,6.00325387 10,6.0048815 L10,6.9951185 C10,8.10238398 10.8935426,9 12.0027601,9 L20.9972399,9 C22.1033337,9 23,8.1061002 23,6.9951185 L23,6.0048815 C23,6.00325388 22.9999981,6.00162671 22.9999942,6 L22.9999942,6 L22.9999942,6 Z M21,24.0500091 L21,21.3747258 L12.6983777,13 L16,13 L16,12 L11,12 L11,17 L12,17 L12,13.7071068 L20,21.7071068 L20,24.0500091 C18.8588798,24.2816442 18,25.290521 18,26.5 C18,27.8807119 19.1192881,29 20.5,29 C21.8807119,29 23,27.8807119 23,26.5 C23,25.290521 22.1411202,24.2816442 21,24.0500091 L21,24.0500091 L21,24.0500091 Z M13,23.2071068 L11.232233,24.9748737 L10.5251263,24.267767 L12.2928932,22.5 L10.5251263,20.732233 L11.232233,20.0251263 L13,21.7928932 L14.767767,20.0251263 L15.4748737,20.732233 L13.7071068,22.5 L15.4748737,24.267767 L14.767767,24.9748737 L13,23.2071068 L13,23.2071068 L13,23.2071068 Z M21,15.2071068 L19.232233,16.9748737 L18.5251263,16.267767 L20.2928932,14.5 L18.5251263,12.732233 L19.232233,12.0251263 L21,13.7928932 L22.767767,12.0251263 L23.4748737,12.732233 L21.7071068,14.5 L23.4748737,16.267767 L22.767767,16.9748737 L21,15.2071068 L21,15.2071068 L21,15.2071068 Z M20.5,28 C21.3284271,28 22,27.3284271 22,26.5 C22,25.6715729 21.3284271,25 20.5,25 C19.6715729,25 19,25.6715729 19,26.5 C19,27.3284271 19.6715729,28 20.5,28 L20.5,28 Z M16.5,5 C16.7761424,5 17,4.77614239 17,4.5 C17,4.22385761 16.7761424,4 16.5,4 C16.2238576,4 16,4.22385761 16,4.5 C16,4.77614239 16.2238576,5 16.5,5 L16.5,5 Z" id="clipboard-move" sketch:type="MSShapeGroup"></path>
        </g>
    </g>
</svg>

<svg width="32" height="32" xmlns="http://www.w3.org/2000/svg"><path d="M14 5V3.998C14 2.898 14.898 2 16.005 2h.99C18.106 2 19 2.894 19 3.998V5h2.004c.551 0 .996.447.996.999v1.002a.994.994 0 0 1-.996.999h-9.008A.997.997 0 0 1 11 7.001V5.999c0-.556.446-.999.996-.999H14zm9 1h1.003C25.109 6 26 6.897 26 8.004v20.992A1.996 1.996 0 0 1 24.003 31H8.997A1.998 1.998 0 0 1 7 28.996V8.004C7 6.89 7.894 6 8.997 6H10v.995C10 8.102 10.894 9 12.003 9h8.994A2.001 2.001 0 0 0 23 6.995v-.99V6zm-2 18.05v-2.675L12.698 13H16v-1h-5v5h1v-3.293l8 8v2.343a2.5 2.5 0 1 0 1 0zm-8-.843l-1.768 1.768-.707-.707 1.768-1.768-1.768-1.768.707-.707L13 21.793l1.768-1.768.707.707-1.768 1.768 1.768 1.768-.707.707L13 23.207zm8-8l-1.768 1.768-.707-.707 1.768-1.768-1.768-1.768.707-.707L21 13.793l1.768-1.768.707.707-1.768 1.768 1.768 1.768-.707.707L21 15.207zM20.5 28a1.5 1.5 0 1 0 0-3 1.5 1.5 0 0 0 0 3zm-4-23a.5.5 0 1 0 0-1 .5.5 0 0 0 0 1z" fill="#929292" fill-rule="evenodd"/></svg>
